icon/pk/orange-station.svg

<svg viewBox="0 0 48 48" fill="none" xmlns="http://www.w3.org/2000/svg" height="1em" width="1em">
  <path fill-rule="evenodd" clip-rule="evenodd" d="M17.0602 9.61532C23.109 10.884 24.2741 13.0392 24.2759 13.0419C22.039 0.115231 15.1907 3.27969 13.7328 4.029C13.5511 4.12245 13.4266 4.29623 13.4009 4.49897C13.2722 5.51308 13.1248 8.79011 17.0602 9.61532Z" fill="black"/>
  <path fill-rule="evenodd" clip-rule="evenodd" d="M14.6533 22.6922C14.079 24.2866 13.9067 26.0745 14.2162 27.9191C14.9923 32.5434 18.8163 35.8948 23.2856 36.2602L24.8155 36.8046C25.4163 36.9988 26.203 37.1906 27.1263 37.325C28.4925 37.524 29.8938 37.5536 31.2806 37.3569C34.6469 36.8793 37.484 35.1461 39.4589 31.8555L39.9035 31.0789C38.6918 37.7554 33.9368 43.8959 26.3379 45.3186C21.0483 46.309 16.0475 44.9445 12.3111 41.9714L12.3546 42.0566C9.88584 37.2646 9.44407 32.944 10.5746 29.0915C11.1158 27.2472 12.0531 25.5984 13.2809 24.136C13.7121 23.6225 14.1626 23.1513 14.6266 22.7174L14.6533 22.6922ZM17.3886 14.3357C19.8981 13.9397 23.9939 13.9624 26.2919 16.5287C26.3246 16.5651 26.2924 16.6229 26.2444 16.6131C25.0173 16.3627 23.3527 16.3577 22.0748 16.5723C19.3808 17.0242 17.2103 18.4602 15.8117 20.4549L15.3199 20.8271C15.0945 21.0009 14.8544 21.1896 14.6906 21.3265C13.9337 21.9594 13.202 22.6748 12.515 23.493C11.2031 25.0556 10.1978 26.824 9.61506 28.81C8.59888 32.2728 8.7749 36.0805 10.4104 40.2026C8.98209 38.6478 7.83206 36.8075 7.04463 34.7454C5.2083 29.936 5.76786 23.6769 8.92262 19.6371C11.1728 16.7557 14.4873 14.7937 17.3886 14.3357ZM31.6804 7.03921C36.2828 0.877215 41.8021 5.38108 42.5278 6.01854C42.5812 6.06562 42.6143 6.12925 42.6216 6.19987C42.72 7.15435 42.978 14.044 29.7209 13.8113C33.3295 14.6958 37.1554 17.7034 38.7565 21.0051C39.2929 22.1118 39.7066 23.2639 39.9258 24.4739C40.1388 25.6496 40.2313 26.8522 40.2071 28.0576C40.1543 28.3361 39.9724 28.7928 39.6895 29.3632L39.5747 29.5903L39.335 30.0434L38.7827 31.0295C36.9618 34.2541 34.3235 35.9152 31.1402 36.3668C29.8549 36.5491 28.5477 36.5215 27.2704 36.3355C26.8224 36.2702 26.4096 36.1908 26.0392 36.1046C28.8332 35.5585 31.1379 33.8937 32.5666 31.6575C32.8966 31.2174 33.1774 30.7326 33.3971 30.1923C34.403 27.7165 34.5362 25.2497 33.7565 22.4833C32.5084 18.0553 29.1651 14.8147 24.9468 13.3616C24.9101 13.3489 24.9094 13.2982 24.9467 13.2874C25.5008 13.1267 27.8401 12.1805 31.6804 7.03921Z" fill="black"/>
</svg>

<svg width="48" height="48" fill="none" xmlns="http://www.w3.org/2000/svg"><path fill-rule="evenodd" clip-rule="evenodd" d="M17.06 9.615c6.049 1.269 7.214 3.424 7.216 3.427C22.039.115 15.19 3.28 13.733 4.029a.615.615 0 0 0-.332.47c-.129 1.014-.276 4.291 3.66 5.116ZM14.653 22.692c-.574 1.595-.746 3.383-.437 5.227.776 4.624 4.6 7.976 9.07 8.341l1.53.545c.6.194 1.387.386 2.31.52 1.366.199 2.768.229 4.155.032 3.366-.478 6.203-2.21 8.178-5.502l.444-.776c-1.211 6.676-5.966 12.817-13.565 14.24-5.29.99-10.29-.375-14.027-3.348l.044.086c-2.47-4.792-2.91-9.113-1.78-12.966.54-1.844 1.478-3.493 2.706-4.955a16.23 16.23 0 0 1 1.346-1.419l.026-.025Zm2.736-8.356c2.51-.396 6.605-.374 8.903 2.193.033.036 0 .094-.048.084-1.227-.25-2.891-.255-4.17-.04-2.693.451-4.864 1.887-6.262 3.882l-.492.372a17.424 17.424 0 0 0-2.805 2.666c-1.312 1.563-2.317 3.331-2.9 5.317-1.016 3.463-.84 7.27.795 11.393a17.03 17.03 0 0 1-3.365-5.458c-1.837-4.809-1.277-11.068 1.878-15.108 2.25-2.881 5.564-4.843 8.466-5.301ZM31.68 7.039C36.283.877 41.802 5.381 42.528 6.02c.053.047.086.11.094.18.098.955.356 7.845-12.901 7.612 3.609.885 7.434 3.892 9.036 7.194.536 1.107.95 2.259 1.169 3.469.213 1.176.305 2.378.281 3.584-.053.278-.235.735-.517 1.305l-.115.227-.24.453-.552.986c-1.821 3.225-4.46 4.886-7.643 5.338a13.622 13.622 0 0 1-3.87-.031c-.448-.066-.86-.145-1.23-.231a10.006 10.006 0 0 0 6.527-4.447c.33-.44.61-.925.83-1.466 1.006-2.476 1.14-4.942.36-7.709-1.249-4.428-4.592-7.668-8.81-9.121-.037-.013-.038-.064 0-.075.554-.16 2.893-1.107 6.733-6.248Z" fill="#000"/></svg>
